source/img/logo/logo.svg

<svg width="48" height="48" viewBox="0 0 48 48" fill="none" xmlns="http://www.w3.org/2000/svg">
<circle cx="16" cy="24" r="16" fill="#316099"/>
<circle cx="32" cy="24" r="15" fill="white" stroke="#316099" stroke-width="2"/>
<path d="M39.3 30L34.38 16H30.96L26.06 30H29.04L29.88 27.48H35.46L36.3 30H39.3ZM32.68 19.18L34.6 24.9H30.76L32.68 19.18Z" fill="#316099"/>
</svg>

<svg width="48" height="48" fill="none" xmlns="http://www.w3.org/2000/svg"><circle cx="16" cy="24" r="16" fill="#316099"/><circle cx="32" cy="24" r="15" fill="#fff" stroke="#316099" stroke-width="2"/><path d="m39.3 30-5-14H31l-5 14h3l.9-2.5h5.6l.8 2.5h3Zm-6.6-10.8 1.9 5.7h-3.8l1.9-5.7Z" fill="#316099"/></svg>
